svgs/thin/person-snowboarding.svg

<svg xmlns="http://www.w3.org/2000/svg" viewBox="0 0 512 512"><!--! Font Awesome Pro 6.0.0-alpha3 by @fontawesome - https://fontawesome.com License - https://fontawesome.com/license (Commercial License) --><path d="M499.2 198.4l-111.5-83.48c-13.79-10.32-29.09-18.34-45.42-23.79l-63.66-21.23L252.5 17.77C246.3 5.361 228.4-5.873 209.7 3.5C193.8 11.38 187.4 30.63 195.3 46.38L224.4 104.5c5.666 11.31 15.69 19.95 27.67 23.98l16.45 5.522L227.3 154.6c-21.68 10.84-35.39 32.95-35.39 57.19V264.9L117.9 288c-16.77 5.598-25.82 23.73-20.24 40.5c4.473 13.42 16.97 21.9 30.37 21.9c3.361 0 6.777-.5332 10.14-1.656l84.87-26.76c19.58-6.537 32.77-24.86 32.77-45.5v-20.5l60.51 45.27l-28.96 92.01c-3.691 17.3 7.342 34.31 24.64 38c18.53 3.961 34.71-8.576 38.14-24.57l31.18-102.1c3.924-18.29-3.147-37.18-18.12-48.4l-52.01-39l66.01-30.5l83.51 62.88c14.1 10.85 34.44 7.296 44.86-6.383C516.2 229.1 513.3 209 499.2 198.4zM492.9 233.6c-4.475 5.875-14.12 9.365-22.53 3.285l-83.51-62.88c-5.145-3.871-11.49-3.979-16.34-1.742l-66.01 30.5c-5.113 2.363-8.602 7.237-9.193 12.84c-.5938 5.602 1.799 11.11 6.305 14.49l52.01 39c9.938 7.455 14.68 20.12 12.41 30.95l-31.5 103.3c-4.592 21.4-35.29 13.03-31.88-5.277l28.95-92.01c2.039-6.484-.2383-13.55-5.682-17.62l-60.51-45.25c-3.172-2.371-9.711-5.018-16.75-1.492c-5.416 2.713-8.836 8.25-8.836 14.31v20.5c0 13.78-8.783 25.97-21.6 30.25l-85.1 26.81C113.1 340.3 102.9 309.9 122.7 303.3L196.7 280.2C203.4 278.1 207.9 271.9 207.9 264.9V211.9c0-18.3 10.17-34.75 26.54-42.94l41.26-20.62c5.783-2.891 9.258-8.979 8.807-15.43c-.4492-6.449-4.738-11.99-10.87-14.05l-16.57-5.566C249 110.6 242.5 104.9 238.7 97.34L209.6 39.22c-3.896-7.791-.8359-17.41 7.221-21.41C227.9 12.25 236.2 20.81 238.2 24.92l26.13 52.13c1.898 3.787 5.219 6.666 9.236 8.008l63.63 21.25c14.73 4.922 28.51 12.14 40.95 21.45l111.4 83.42C496.8 216.6 497.1 226.7 492.9 233.6zM474.3 477.2c-17.89 17.91-44.69 23.63-68.31 14.5L57.61 357.7c-21.09-8.094-36.5-27-40.2-49.28L15.89 299.4C15.16 295 11.04 291.1 6.676 292.9C2.316 293.6-.6211 297.7 .1133 302l1.516 9.033c4.625 27.88 23.88 51.47 50.23 61.6l348.4 134C409.6 510.3 419.3 512 428.1 512c20.89 0 41.39-8.156 56.67-23.44c3.125-3.125 3.125-8.188 0-11.31S477.5 474.1 474.3 477.2zM428 104c28.71 0 52-23.29 52-52S456.7 0 428 0c-28.71 0-52 23.29-52 52S399.3 104 428 104zM428 16c19.85 0 36 16.15 36 36c0 19.85-16.15 36-36 36s-36-16.15-36-36C392 32.15 408.2 16 428 16z"/></svg>

<svg xmlns="http://www.w3.org/2000/svg" viewBox="0 0 512 512"><!-- Font Awesome Pro 6.0.0-alpha2 by @fontawesome - https://fontawesome.com License - https://fontawesome.com/license (Commercial License) --><path d="M499.206 198.387L387.782 114.951C373.997 104.627 358.644 96.586 342.312 91.131L278.677 69.879L252.548 17.752C246.345 5.346 228.411 -5.873 209.667 3.5C193.788 11.375 187.413 30.627 195.29 46.377L224.419 104.506C230.085 115.812 239.993 124.416 251.98 128.441L268.55 134.008L227.294 154.635C205.611 165.475 191.913 187.639 191.913 211.883V264.891L117.89 288.018C101.122 293.615 92.066 311.746 97.654 328.518C102.126 341.936 114.62 350.422 128.027 350.422C131.388 350.422 134.804 349.889 138.167 348.766L223.009 322.031C242.593 315.494 255.798 297.162 255.798 276.518V256.016L316.308 301.268L287.363 393.281C283.671 410.58 294.704 427.594 312.003 431.281L312.163 431.314C330.693 435.275 346.716 422.705 350.146 406.715L381.304 304.689C385.228 286.395 378.155 267.488 363.187 256.266L311.181 217.264L377.189 186.762L460.7 249.641C475.698 260.486 495.167 256.945 505.583 243.266C516.21 229.139 513.333 209.014 499.206 198.387ZM492.855 233.57C488.38 239.445 478.738 242.936 470.325 236.855L386.814 173.977C381.669 170.105 375.323 169.998 370.478 172.234L304.47 202.736C299.357 205.1 295.863 209.979 295.271 215.582C294.677 221.184 297.075 226.684 301.581 230.064L353.589 269.066C363.527 276.521 368.265 289.186 366.003 300.014L334.501 403.359C329.909 424.756 299.21 416.385 302.624 398.082L331.572 306.07C333.611 299.586 331.333 292.523 325.89 288.453L265.38 243.201C262.208 240.83 255.669 238.184 248.634 241.709C243.218 244.422 239.798 249.959 239.798 256.016V276.518C239.798 290.299 231.015 302.488 218.2 306.771L133.103 333.586C113.062 340.275 102.896 309.898 122.661 303.289L196.685 280.164C203.364 278.078 207.913 271.889 207.913 264.891V211.883C207.913 193.58 218.081 177.131 234.448 168.945L275.704 148.32C281.488 145.43 284.962 139.342 284.511 132.893C284.062 126.443 279.773 120.898 273.644 118.84L257.073 113.273C249.038 110.574 242.521 104.914 238.724 97.338L209.601 39.221C205.704 31.43 208.765 21.811 216.822 17.813C227.943 12.25 236.187 20.807 238.245 24.922L264.374 77.049C266.273 80.836 269.593 83.715 273.611 85.057L337.243 106.307C351.978 111.229 365.755 118.445 378.193 127.758L489.589 211.176C496.79 216.59 497.995 226.732 492.855 233.57ZM474.343 477.248C456.452 495.154 429.655 500.875 406.03 491.748L57.613 357.74C36.519 349.646 21.113 330.738 17.409 308.457L15.894 299.424C15.159 295.049 11.034 291.955 6.675 292.861C2.316 293.58 -0.622 297.705 0.113 302.049L1.628 311.082C6.253 338.959 25.503 362.553 51.863 372.68L400.28 506.688C409.624 510.281 419.343 512 428.984 512C449.874 512 470.374 503.844 485.655 488.561C488.78 485.436 488.78 480.373 485.655 477.248S477.468 474.123 474.343 477.248ZM427.999 104.006C456.706 104.006 479.999 80.715 479.999 52.004S456.706 0 427.999 0C399.29 0 375.999 23.293 375.999 52.004S399.29 104.006 427.999 104.006ZM427.999 16.002C447.849 16.002 463.999 32.15 463.999 52.004C463.999 71.854 447.849 88.006 427.999 88.006S391.999 71.854 391.999 52.004C391.999 32.15 408.15 16.002 427.999 16.002Z"/></svg>
